packages/dnb-ui-lib/assets/icons/graph_increase_medium.svg

<svg width="24" height="24" viewBox="0 0 24 24" fill="none" xmlns="http://www.w3.org/2000/svg">
<path d="M0.749994 23.25H2.24998M23.2498 23.25H21.7498M3.43199 9.2411L19.4998 1.94417M19.4998 1.94417L18.3059 5.12514M19.4998 1.94417L16.3189 0.750177M2.24998 23.25V18C2.24998 17.8011 2.329 17.6104 2.46965 17.4697C2.6103 17.3291 2.80106 17.25 2.99997 17.25H5.99995C6.19886 17.25 6.38962 17.3291 6.53028 17.4697C6.67093 17.6104 6.74994 17.8011 6.74994 18V23.25M2.24998 23.25H6.74994M6.74994 23.25H9.74992M9.74992 23.25V13.5001C9.74992 13.3012 9.82893 13.1104 9.96959 12.9697C10.1102 12.8291 10.301 12.7501 10.4999 12.7501H13.4999C13.6988 12.7501 13.8896 12.8291 14.0302 12.9697C14.1709 13.1104 14.2499 13.3012 14.2499 13.5001V23.25M9.74992 23.25H14.2499M14.2499 23.25H17.2499M17.2499 23.25V10.5001C17.2499 10.3012 17.3289 10.1104 17.4695 9.96977C17.6102 9.82912 17.8009 9.7501 17.9998 9.7501H20.9998C21.1987 9.7501 21.3895 9.82912 21.5301 9.96977C21.6708 10.1104 21.7498 10.3012 21.7498 10.5001V23.25M17.2499 23.25H21.7498" stroke="black" stroke-width="1.5" stroke-linecap="round" stroke-linejoin="round"/>
</svg>

<svg width="24" height="24" viewBox="0 0 24 24" fill="none" xmlns="http://www.w3.org/2000/svg"><path d="M.75 23.25h1.5m21 0h-1.5M3.432 9.241L19.5 1.944m0 0l-1.194 3.181m1.194-3.18L16.319.75M2.25 23.25V18a.75.75 0 01.75-.75h3a.75.75 0 01.75.75v5.25m-4.5 0h4.5m0 0h3m0 0V13.5a.75.75 0 01.75-.75h3a.75.75 0 01.75.75v9.75m-4.5 0h4.5m0 0h3m0 0V10.5a.75.75 0 01.75-.75h3a.75.75 0 01.75.75v12.75m-4.5 0h4.5" stroke="#000" stroke-width="1.5" stroke-linecap="round" stroke-linejoin="round"/></svg>
